Newaita-dark/apps/48/com.github.bcedu.museic.svg

<svg height="48pt" viewBox="0 0 48 48" width="48pt" xmlns="http://www.w3.org/2000/svg" xmlns:xlink="http://www.w3.org/1999/xlink"><linearGradient id="a"><stop offset="0" stop-opacity=".313725"/><stop offset=".222222" stop-opacity=".27451"/><stop offset="1" stop-opacity="0"/></linearGradient><radialGradient id="b" cx="450.90894" cy="189.57936" gradientTransform="matrix(.00000024 -.164078 -.189862 -.00000021 49.836142 116.729884)" gradientUnits="userSpaceOnUse" r="21.166656" xlink:href="#a"/><radialGradient id="c" cx="450.90894" cy="189.57936" gradientTransform="matrix(-.00000024 .164078 .189862 .00000021 -23.044521 -32.628109)" gradientUnits="userSpaceOnUse" r="21.166656" xlink:href="#a"/><radialGradient id="d" cx="450.90894" cy="189.57936" gradientTransform="matrix(-.00000024 -.164078 .189862 -.00000021 -23.044521 116.729884)" gradientUnits="userSpaceOnUse" r="21.166656" xlink:href="#a"/><radialGradient id="e" cx="450.90894" cy="189.57936" gradientTransform="matrix(.00000024 .164078 -.189862 .00000021 49.83614 -32.62811)" gradientUnits="userSpaceOnUse" r="21.166656" xlink:href="#a"/><linearGradient id="f" gradientTransform="matrix(.00515317 0 0 .131263 12.080086 11.401073)" gradientUnits="userSpaceOnUse" x1="255.32306" x2="255.32304" y1="233.5" y2="254.66666"><stop offset="0" stop-opacity=".27451"/><stop offset="1" stop-opacity="0"/></linearGradient><linearGradient id="g" gradientUnits="userSpaceOnUse" x1="23.81475935988" x2="23.81475935988" y1="42.05086822075" y2="4.34415126003"><stop offset="0" stop-color="#424242"/><stop offset="1" stop-color="#616161"/></linearGradient><path d="m14.289062 42.050781h3.570313v-2.777343h-3.570313zm0 0" fill="url(#b)"/><path d="m12.503906 42.050781h-3.574218v2.777344h3.574218zm0 0" fill="url(#c)"/><path d="m12.503906 42.050781h-3.574218v-2.777343h3.574218zm0 0" fill="url(#d)"/><path d="m14.289062 42.050781h3.570313v2.777344h-3.570313zm0 0" fill="url(#e)"/><path d="m12.503906 41.355469h1.785156v3.472656h-1.785156zm0 0" fill="url(#f)"/><path d="m17.859375 4.34375c-1.300781 0-2.347656 1.21875-2.347656 2.734375v23.425781c-.730469-.214844-1.523438-.332031-2.347657-.332031-3.902343 0-7.042968 2.617187-7.042968 5.867187 0 3.253907 3.140625 5.871094 7.042968 5.871094 3.902344 0 7.042969-2.617187 7.042969-5.871094v-25.824218c0-.652344.527344-1.175782 1.175781-1.175782h11.738282c.652344 0 1.175781.523438 1.175781 1.175782v13.246094c-.734375-.214844-1.523437-.332032-2.347656-.332032-3.902344 0-7.042969 2.617188-7.042969 5.867188 0 3.253906 3.140625 5.871094 7.042969 5.871094 3.902343 0 7.042969-2.617188 7.042969-5.871094v-21.917969c0-1.515625-1.046876-2.734375-2.347657-2.734375zm0 0" fill="url(#g)"/><path d="m17.859375 4.34375c-1.300781 0-2.347656 1.21875-2.347656 2.734375v.496094c0-1.515625 1.046875-2.734375 2.347656-2.734375h18.785156c1.300781 0 2.347657 1.21875 2.347657 2.734375v-.496094c0-1.515625-1.046876-2.734375-2.347657-2.734375zm14.089844 18.785156c-3.902344 0-7.042969 2.617188-7.042969 5.867188 0 .082031 0 .164062.003906.246094.15625-3.132813 3.238282-5.617188 7.039063-5.617188.824219 0 1.613281.117188 2.347656.332031v-.496093c-.734375-.214844-1.523437-.332032-2.347656-.332032zm-18.785157 7.042969c-3.902343 0-7.042968 2.617187-7.042968 5.867187 0 .085938.003906.167969.007812.25.15625-3.136718 3.234375-5.621093 7.035156-5.621093.824219 0 1.617188.117187 2.347657.332031v-.496094c-.730469-.214844-1.523438-.332031-2.347657-.332031zm0 0" fill="#fff" fill-opacity=".313725"/><path d="m21.382812 8.28125c-.648437 0-1.175781.523438-1.175781 1.175781v.757813c0-.652344.527344-1.175782 1.175781-1.175782h11.738282c.652344 0 1.175781.523438 1.175781 1.175782v-.757813c0-.652343-.523437-1.175781-1.175781-1.175781zm17.609376 19.957031c0 3.253907-3.140626 5.871094-7.042969 5.871094-3.75 0-6.796875-2.417969-7.03125-5.492187-.007813.125-.011719.253906-.011719.378906 0 3.253906 3.140625 5.871094 7.042969 5.871094 3.902343 0 7.042969-2.617188 7.042969-5.871094zm-18.785157 7.042969c0 3.253906-3.140625 5.871094-7.042969 5.871094-3.75 0-6.792968-2.417969-7.027343-5.492188-.011719.128906-.015625.253906-.015625.378906 0 3.253907 3.140625 5.871094 7.042968 5.871094 3.902344 0 7.042969-2.617187 7.042969-5.871094zm0 0" fill-opacity=".235294"/><path d="m190.48181-168.671091c-13.873675 0-25.039276 12.998759-25.039276 29.163882v249.85114c-7.790922-2.291448-16.248448-3.541328-25.039275-3.541328-41.621026 0-75.117827 27.914001-75.117827 62.577357 0 34.705019 33.496801 62.61902 75.117827 62.61902 41.621025 0 75.117826-27.914001 75.117826-62.61902v-275.432031c0-6.957669 5.624463-12.540469 12.54047-12.540469h125.196377c6.957669 0 12.540469 5.5828 12.540469 12.540469v141.278176c-7.832585-2.291448-16.248448-3.541329-25.039275-3.541329-41.621026 0-75.117827 27.914001-75.117827 62.577358 0 34.705019 33.496801 62.61902 75.117827 62.61902 41.621025 0 75.117826-27.914001 75.117826-62.61902v-233.769343c0-16.165123-11.1656-29.163882-25.039275-29.163882zm0 0" fill="none" stroke="#212121" stroke-linecap="round" stroke-width="3" transform="matrix(.093759 0 0 .093759 0 20.158175)"/></svg>

<?xml version="1.0" encoding="UTF-8"?>
<svg xmlns="http://www.w3.org/2000/svg" xmlns:xlink="http://www.w3.org/1999/xlink" width="48pt" height="48pt" viewBox="0 0 48 48" version="1.1">
<defs>
<radialGradient id="radial0" gradientUnits="userSpaceOnUse" cx="450.90894" cy="189.57936" fx="450.90894" fy="189.57936" r="21.166656" gradientTransform="matrix(0.00000023513,-0.164078,-0.189862,-0.000000213231,49.836142,116.729884)">
<stop offset="0" style="stop-color:rgb(0%,0%,0%);stop-opacity:0.313725;"/>
<stop offset="0.222222" style="stop-color:rgb(0%,0%,0%);stop-opacity:0.27451;"/>
<stop offset="1" style="stop-color:rgb(0%,0%,0%);stop-opacity:0;"/>
</radialGradient>
<radialGradient id="radial1" gradientUnits="userSpaceOnUse" cx="450.90894" cy="189.57936" fx="450.90894" fy="189.57936" r="21.166656" gradientTransform="matrix(-0.00000023513,0.164078,0.189862,0.000000213231,-23.044521,-32.628109)">
<stop offset="0" style="stop-color:rgb(0%,0%,0%);stop-opacity:0.313725;"/>
<stop offset="0.222222" style="stop-color:rgb(0%,0%,0%);stop-opacity:0.27451;"/>
<stop offset="1" style="stop-color:rgb(0%,0%,0%);stop-opacity:0;"/>
</radialGradient>
<radialGradient id="radial2" gradientUnits="userSpaceOnUse" cx="450.90894" cy="189.57936" fx="450.90894" fy="189.57936" r="21.166656" gradientTransform="matrix(-0.00000023513,-0.164078,0.189862,-0.000000213231,-23.044521,116.729884)">
<stop offset="0" style="stop-color:rgb(0%,0%,0%);stop-opacity:0.313725;"/>
<stop offset="0.222222" style="stop-color:rgb(0%,0%,0%);stop-opacity:0.27451;"/>
<stop offset="1" style="stop-color:rgb(0%,0%,0%);stop-opacity:0;"/>
</radialGradient>
<radialGradient id="radial3" gradientUnits="userSpaceOnUse" cx="450.90894" cy="189.57936" fx="450.90894" fy="189.57936" r="21.166656" gradientTransform="matrix(0.00000023513,0.164078,-0.189862,0.000000213231,49.83614,-32.62811)">
<stop offset="0" style="stop-color:rgb(0%,0%,0%);stop-opacity:0.313725;"/>
<stop offset="0.222222" style="stop-color:rgb(0%,0%,0%);stop-opacity:0.27451;"/>
<stop offset="1" style="stop-color:rgb(0%,0%,0%);stop-opacity:0;"/>
</radialGradient>
<linearGradient id="linear0" gradientUnits="userSpaceOnUse" x1="255.32306" y1="233.5" x2="255.32304" y2="254.66666" gradientTransform="matrix(0.00515317,0,0,0.131263,12.080086,11.401073)">
<stop offset="0" style="stop-color:rgb(0%,0%,0%);stop-opacity:0.27451;"/>
<stop offset="1" style="stop-color:rgb(0%,0%,0%);stop-opacity:0;"/>
</linearGradient>
<linearGradient id="linear1" gradientUnits="userSpaceOnUse" x1="981.43005" y1="1457.5077" x2="981.43005" y2="815.11719" gradientTransform="matrix(0.0586975,0,0,0.0586975,-33.792731,-43.50119)">
<stop offset="0" style="stop-color:rgb(25.882353%,25.882353%,25.882353%);stop-opacity:1;"/>
<stop offset="1" style="stop-color:rgb(38.039216%,38.039216%,38.039216%);stop-opacity:1;"/>
</linearGradient>
</defs>
<g id="surface1">
<path style=" stroke:none;fill-rule:nonzero;fill:url(#radial0);" d="M 14.289062 42.050781 L 17.859375 42.050781 L 17.859375 39.273438 L 14.289062 39.273438 Z M 14.289062 42.050781 "/>
<path style=" stroke:none;fill-rule:nonzero;fill:url(#radial1);" d="M 12.503906 42.050781 L 8.929688 42.050781 L 8.929688 44.828125 L 12.503906 44.828125 Z M 12.503906 42.050781 "/>
<path style=" stroke:none;fill-rule:nonzero;fill:url(#radial2);" d="M 12.503906 42.050781 L 8.929688 42.050781 L 8.929688 39.273438 L 12.503906 39.273438 Z M 12.503906 42.050781 "/>
<path style=" stroke:none;fill-rule:nonzero;fill:url(#radial3);" d="M 14.289062 42.050781 L 17.859375 42.050781 L 17.859375 44.828125 L 14.289062 44.828125 Z M 14.289062 42.050781 "/>
<path style=" stroke:none;fill-rule:nonzero;fill:url(#linear0);" d="M 12.503906 41.355469 L 14.289062 41.355469 L 14.289062 44.828125 L 12.503906 44.828125 Z M 12.503906 41.355469 "/>
<path style=" stroke:none;fill-rule:nonzero;fill:url(#linear1);" d="M 17.859375 4.34375 C 16.558594 4.34375 15.511719 5.5625 15.511719 7.078125 L 15.511719 30.503906 C 14.78125 30.289062 13.988281 30.171875 13.164062 30.171875 C 9.261719 30.171875 6.121094 32.789062 6.121094 36.039062 C 6.121094 39.292969 9.261719 41.910156 13.164062 41.910156 C 17.066406 41.910156 20.207031 39.292969 20.207031 36.039062 L 20.207031 10.214844 C 20.207031 9.5625 20.734375 9.039062 21.382812 9.039062 L 33.121094 9.039062 C 33.773438 9.039062 34.296875 9.5625 34.296875 10.214844 L 34.296875 23.460938 C 33.5625 23.246094 32.773438 23.128906 31.949219 23.128906 C 28.046875 23.128906 24.90625 25.746094 24.90625 28.996094 C 24.90625 32.25 28.046875 34.867188 31.949219 34.867188 C 35.851562 34.867188 38.992188 32.25 38.992188 28.996094 L 38.992188 7.078125 C 38.992188 5.5625 37.945312 4.34375 36.644531 4.34375 Z M 17.859375 4.34375 "/>
<path style=" stroke:none;fill-rule:nonzero;fill:rgb(100%,100%,100%);fill-opacity:0.313725;" d="M 17.859375 4.34375 C 16.558594 4.34375 15.511719 5.5625 15.511719 7.078125 L 15.511719 7.574219 C 15.511719 6.058594 16.558594 4.839844 17.859375 4.839844 L 36.644531 4.839844 C 37.945312 4.839844 38.992188 6.058594 38.992188 7.574219 L 38.992188 7.078125 C 38.992188 5.5625 37.945312 4.34375 36.644531 4.34375 Z M 31.949219 23.128906 C 28.046875 23.128906 24.90625 25.746094 24.90625 28.996094 C 24.90625 29.078125 24.90625 29.160156 24.910156 29.242188 C 25.066406 26.109375 28.148438 23.625 31.949219 23.625 C 32.773438 23.625 33.5625 23.742188 34.296875 23.957031 L 34.296875 23.460938 C 33.5625 23.246094 32.773438 23.128906 31.949219 23.128906 Z M 13.164062 30.171875 C 9.261719 30.171875 6.121094 32.789062 6.121094 36.039062 C 6.121094 36.125 6.125 36.207031 6.128906 36.289062 C 6.285156 33.152344 9.363281 30.667969 13.164062 30.667969 C 13.988281 30.667969 14.78125 30.785156 15.511719 31 L 15.511719 30.503906 C 14.78125 30.289062 13.988281 30.171875 13.164062 30.171875 Z M 13.164062 30.171875 "/>
<path style=" stroke:none;fill-rule:nonzero;fill:rgb(0%,0%,0%);fill-opacity:0.235294;" d="M 21.382812 8.28125 C 20.734375 8.28125 20.207031 8.804688 20.207031 9.457031 L 20.207031 10.214844 C 20.207031 9.5625 20.734375 9.039062 21.382812 9.039062 L 33.121094 9.039062 C 33.773438 9.039062 34.296875 9.5625 34.296875 10.214844 L 34.296875 9.457031 C 34.296875 8.804688 33.773438 8.28125 33.121094 8.28125 Z M 38.992188 28.238281 C 38.992188 31.492188 35.851562 34.109375 31.949219 34.109375 C 28.199219 34.109375 25.152344 31.691406 24.917969 28.617188 C 24.910156 28.742188 24.90625 28.871094 24.90625 28.996094 C 24.90625 32.25 28.046875 34.867188 31.949219 34.867188 C 35.851562 34.867188 38.992188 32.25 38.992188 28.996094 Z M 20.207031 35.28125 C 20.207031 38.535156 17.066406 41.152344 13.164062 41.152344 C 9.414062 41.152344 6.371094 38.734375 6.136719 35.660156 C 6.125 35.789062 6.121094 35.914062 6.121094 36.039062 C 6.121094 39.292969 9.261719 41.910156 13.164062 41.910156 C 17.066406 41.910156 20.207031 39.292969 20.207031 36.039062 Z M 20.207031 35.28125 "/>
<path style="fill:none;stroke-width:3;stroke-linecap:round;stroke-linejoin:miter;stroke:rgb(12.941176%,12.941176%,12.941176%);stroke-opacity:1;stroke-miterlimit:4;" d="M 190.48181 -168.671091 C 176.608135 -168.671091 165.442534 -155.672332 165.442534 -139.507209 L 165.442534 110.343931 C 157.651612 108.052483 149.194086 106.802603 140.403259 106.802603 C 98.782233 106.802603 65.285432 134.716604 65.285432 169.37996 C 65.285432 204.084979 98.782233 231.99898 140.403259 231.99898 C 182.024284 231.99898 215.521085 204.084979 215.521085 169.37996 L 215.521085 -106.052071 C 215.521085 -113.00974 221.145548 -118.59254 228.061555 -118.59254 L 353.257932 -118.59254 C 360.215601 -118.59254 365.798401 -113.00974 365.798401 -106.052071 L 365.798401 35.226105 C 357.965816 32.934657 349.549953 31.684776 340.759126 31.684776 C 299.1381 31.684776 265.641299 59.598777 265.641299 94.262134 C 265.641299 128.967153 299.1381 156.881154 340.759126 156.881154 C 382.380151 156.881154 415.876952 128.967153 415.876952 94.262134 L 415.876952 -139.507209 C 415.876952 -155.672332 404.711352 -168.671091 390.837677 -168.671091 Z M 190.48181 -168.671091 " transform="matrix(0.093759,0,0,0.093759,0,20.158175)"/>
</g>
</svg>
